alternatives/kde-colorscheme/16/apps/preferences-activities.svg

<?xml version="1.0" encoding="UTF-8" standalone="no"?>
<!-- Created with Inkscape (http://www.inkscape.org/) -->

<svg
   width="16"
   height="16"
   viewBox="0 0 16 16"
   version="1.1"
   id="svg5"
   inkscape:version="1.2.2 (1:1.2.2+202305151914+b0a8486541)"
   sodipodi:docname="preferences-activities.svg"
   xmlns:inkscape="http://www.inkscape.org/namespaces/inkscape"
   xmlns:sodipodi="http://sodipodi.sourceforge.net/DTD/sodipodi-0.dtd"
   xmlns="http://www.w3.org/2000/svg"
   xmlns:svg="http://www.w3.org/2000/svg">
  <sodipodi:namedview
     id="namedview7"
     pagecolor="#ffffff"
     bordercolor="#000000"
     borderopacity="0.25"
     inkscape:showpageshadow="2"
     inkscape:pageopacity="0.0"
     inkscape:pagecheckerboard="0"
     inkscape:deskcolor="#d1d1d1"
     inkscape:document-units="px"
     showgrid="false"
     inkscape:zoom="50.375"
     inkscape:cx="7.9900744"
     inkscape:cy="8"
     inkscape:window-width="1920"
     inkscape:window-height="1008"
     inkscape:window-x="0"
     inkscape:window-y="0"
     inkscape:window-maximized="1"
     inkscape:current-layer="svg5" />
  <defs
     id="defs2">
    <style
       id="current-color-scheme"
       type="text/css">
         .ColorScheme-Text { color:#232629; }
         .ColorScheme-Highlight { color:#3daee9; }
     </style>
  </defs>
  <path
     id="path530"
     style="fill:currentColor;stroke-width:0.5;stroke-linecap:round;stroke-linejoin:round;fill-opacity:1"
     class="ColorScheme-Highlight"
     d="M 6 0 C 1.4494094 0 0 1.469913 0 6 L 0 10 C 0 14.530087 1.4494094 16 6 16 L 10 16 C 14.550591 16 16 14.530086 16 10 L 16 6 C 16 1.469913 14.550591 0 10 0 L 6 0 z " />
  <path
     id="rect393"
     style="opacity:0.6;fill:currentColor;fill-opacity:1;stroke-linecap:round;stroke-linejoin:round"
     class="ColorScheme-Text"
     d="M 8,2 C 7.4460024,2 7,2.4460024 7,3 V 3.6230469 C 6.5070863,3.7336384 6.0363126,3.9264378 5.6074219,4.1933594 L 5.171875,3.7578125 C 4.9760072,3.5619447 4.7204243,3.4648438 4.4648438,3.4648438 c -0.2555808,0 -0.5111635,0.097101 -0.7070313,0.2929687 -0.3917356,0.3917356 -0.3917356,1.0223269 0,1.4140625 L 4.1933594,5.6074219 C 3.9264378,6.0363126 3.7336384,6.5070863 3.6230469,7 H 3 C 2.4460024,7 2,7.4460024 2,8 2,8.5539976 2.4460024,9 3,9 h 0.6230469 c 0.1105915,0.4929136 0.3033909,0.9636874 0.5703125,1.392578 l -0.4355469,0.435547 c -0.3917356,0.391737 -0.3917356,1.022326 0,1.414063 0.3917356,0.391733 1.0223269,0.391733 1.4140625,0 L 5.6074219,11.806641 C 6.0363126,12.073562 6.5070864,12.266362 7,12.376953 V 13 c 0,0.553996 0.4460024,1 1,1 0.5539976,0 1,-0.446004 1,-1 v -0.623047 c 0.4929136,-0.110591 0.9636873,-0.303391 1.392578,-0.570312 l 0.435547,0.435547 c 0.391737,0.391733 1.022326,0.391733 1.414063,0 0.391733,-0.391737 0.391733,-1.022326 0,-1.414063 L 11.806641,10.392578 C 12.073562,9.9636873 12.266362,9.4929136 12.376953,9 H 13 C 13.553996,9 14,8.5539976 14,8 14,7.4460024 13.553996,7 13,7 H 12.386719 C 12.273913,6.5059181 12.078454,6.0344415 11.808594,5.6054688 L 12.242188,5.171875 c 0.391733,-0.3917356 0.391733,-1.0223269 0,-1.4140625 -0.195869,-0.1958678 -0.451451,-0.2929687 -0.707032,-0.2929687 -0.255579,0 -0.511163,0.097101 -0.707031,0.2929687 L 10.394531,4.1914062 C 9.9655584,3.9215458 9.4940818,3.7260877 9,3.6132812 V 3 C 9,2.4460024 8.5539976,2 8,2 Z m 0,4 c 1.1045695,0 2,0.8954305 2,2 0,1.1045695 -0.8954305,2 -2,2 C 6.8954305,10 6,9.1045695 6,8 6,6.8954305 6.8954305,6 8,6 Z"
     sodipodi:nodetypes="ssccssssccsssccscsccsssccscsccsssccssssccsssssss" />
</svg>

<?xml version="1.0" encoding="UTF-8" standalone="no"?>
<!-- Created with Inkscape (http://www.inkscape.org/) -->

<svg
   width="16"
   height="16"
   viewBox="0 0 16 16"
   version="1.1"
   id="svg5"
   inkscape:version="1.2.2 (1:1.2.2+202305151914+b0a8486541)"
   sodipodi:docname="preferences-activities.svg"
   xmlns:inkscape="http://www.inkscape.org/namespaces/inkscape"
   xmlns:sodipodi="http://sodipodi.sourceforge.net/DTD/sodipodi-0.dtd"
   xmlns="http://www.w3.org/2000/svg"
   xmlns:svg="http://www.w3.org/2000/svg">
  <sodipodi:namedview
     id="namedview7"
     pagecolor="#ffffff"
     bordercolor="#000000"
     borderopacity="0.25"
     inkscape:showpageshadow="2"
     inkscape:pageopacity="0.0"
     inkscape:pagecheckerboard="0"
     inkscape:deskcolor="#d1d1d1"
     inkscape:document-units="px"
     showgrid="false"
     inkscape:zoom="50.375"
     inkscape:cx="7.9900744"
     inkscape:cy="8"
     inkscape:window-width="1920"
     inkscape:window-height="1008"
     inkscape:window-x="0"
     inkscape:window-y="0"
     inkscape:window-maximized="1"
     inkscape:current-layer="svg5" />
  <defs
     id="defs2">
    <style
       id="current-color-scheme"
       type="text/css">
         .ColorScheme-Text { color:#232629; }
         .ColorScheme-Highlight { color:#3daee9; }
     </style>
  </defs>
  <path
     id="path530"
     style="fill:currentColor;stroke-width:0.5;stroke-linecap:round;stroke-linejoin:round;fill-opacity:1"
     class="ColorScheme-Highlight"
     d="M 6 0 C 1.4494094 0 0 1.469913 0 6 L 0 10 C 0 14.530087 1.4494094 16 6 16 L 10 16 C 14.550591 16 16 14.530086 16 10 L 16 6 C 16 1.469913 14.550591 0 10 0 L 6 0 z " />
  <path
     id="rect393"
     style="opacity:0.3;fill:currentColor;stroke-linecap:round;stroke-linejoin:round;fill-opacity:1"
     class="ColorScheme-Text"
     d="M 8 2 C 7.4460018 2 7 2.4460018 7 3 L 7 3.6230469 A 4.5 4.5 0 0 1 8 3.5 A 4.5 4.5 0 0 1 9 3.6132812 L 9 3 C 9 2.4460018 8.5539982 2 8 2 z M 4.4648438 3.4648438 C 4.2092628 3.4648438 3.9536805 3.5619445 3.7578125 3.7578125 C 3.3660765 4.1495485 3.3660765 4.780139 3.7578125 5.171875 L 4.1933594 5.6074219 A 4.5 4.5 0 0 1 5.6074219 4.1933594 L 5.171875 3.7578125 C 4.976007 3.5619445 4.7204246 3.4648438 4.4648438 3.4648438 z M 11.535156 3.4648438 C 11.279576 3.4648438 11.023993 3.5619445 10.828125 3.7578125 L 10.394531 4.1914062 A 4.5 4.5 0 0 1 11.808594 5.6054688 L 12.242188 5.171875 C 12.633922 4.780139 12.633922 4.1495485 12.242188 3.7578125 C 12.046319 3.5619445 11.790737 3.4648438 11.535156 3.4648438 z M 3 7 C 2.4460018 7 2 7.4460018 2 8 C 2 8.5539982 2.4460018 9 3 9 L 3.6230469 9 A 4.5 4.5 0 0 1 3.5 8 A 4.5 4.5 0 0 1 3.6230469 7 L 3 7 z M 12.386719 7 A 4.5 4.5 0 0 1 12.5 8 A 4.5 4.5 0 0 1 12.376953 9 L 13 9 C 13.553997 9 14 8.5539982 14 8 C 14 7.4460018 13.553997 7 13 7 L 12.386719 7 z M 4.1933594 10.392578 L 3.7578125 10.828125 C 3.3660765 11.219862 3.3660765 11.850451 3.7578125 12.242188 C 4.1495485 12.633922 4.780139 12.633922 5.171875 12.242188 L 5.6074219 11.806641 A 4.5 4.5 0 0 1 4.1933594 10.392578 z M 11.806641 10.392578 A 4.5 4.5 0 0 1 10.392578 11.806641 L 10.828125 12.242188 C 11.219862 12.633922 11.850451 12.633922 12.242188 12.242188 C 12.633922 11.850451 12.633922 11.219862 12.242188 10.828125 L 11.806641 10.392578 z M 7 12.376953 L 7 13 C 7 13.553997 7.4460018 14 8 14 C 8.5539982 14 9 13.553997 9 13 L 9 12.376953 A 4.5 4.5 0 0 1 8 12.5 A 4.5 4.5 0 0 1 7 12.376953 z " />
  <path
     id="path285"
     style="opacity:0.6;fill:currentColor;stroke-width:0.9;stroke-linecap:round;stroke-linejoin:round;fill-opacity:1"
     class="ColorScheme-Text"
     d="M 8 3.5 A 4.5 4.5 0 0 0 3.5 8 A 4.5 4.5 0 0 0 8 12.5 A 4.5 4.5 0 0 0 12.5 8 A 4.5 4.5 0 0 0 8 3.5 z M 8 6 A 2 2 0 0 1 10 8 A 2 2 0 0 1 8 10 A 2 2 0 0 1 6 8 A 2 2 0 0 1 8 6 z " />
</svg>
